X: 41900
T: Waddling Gander, The
R: jig
M: 6/8
K: Gmajor
BGG dGG|BGG dcB|cAA eAA|cAA edc|
BGG dGG|BGG dcB|c2d e2g|dBA A2G:|
g2d B2d|gfe dcB|Aee gee|Aee gee|
g2d B2d|gfe dcB|c2d e2g|dBA A2G:|
Bdd edd|Bdd edd|Aee gee|Aee gee|
Bdd edd|Bdd edd|c2d e2g|dBA A2G:|

